archdroid-icon-theme/Archdroid-LightBlue/status/scalable/bluetooth-paired.svg

<?xml version="1.0" encoding="UTF-8" standalone="no"?>
<svg
   xmlns:dc="http://purl.org/dc/elements/1.1/"
   xmlns:cc="http://creativecommons.org/ns#"
   xmlns:rdf="http://www.w3.org/1999/02/22-rdf-syntax-ns#"
   xmlns:svg="http://www.w3.org/2000/svg"
   xmlns="http://www.w3.org/2000/svg"
   xmlns:sodipodi="http://sodipodi.sourceforge.net/DTD/sodipodi-0.dtd"
   xmlns:inkscape="http://www.inkscape.org/namespaces/inkscape"
   width="40"
   height="40"
   viewBox="0 0 40 40"
   id="svg2"
   version="1.1"
   inkscape:version="0.91 r13725"
   sodipodi:docname="bluetooth-paired.svg"
   style="fill:#03A9F4">
  <metadata
     id="metadata10">
    <rdf:RDF>
      <cc:Work
         rdf:about="">
        <dc:format>image/svg+xml</dc:format>
        <dc:type
           rdf:resource="http://purl.org/dc/dcmitype/StillImage" />
        <dc:title></dc:title>
      </cc:Work>
    </rdf:RDF>
  </metadata>
  <defs
     id="defs8" />
  <sodipodi:namedview
     pagecolor="#ffffff"
     bordercolor="#666666"
     borderopacity="1"
     objecttolerance="10"
     gridtolerance="10"
     guidetolerance="10"
     inkscape:pageopacity="0"
     inkscape:pageshadow="2"
     inkscape:window-width="1366"
     inkscape:window-height="713"
     id="namedview6"
     showgrid="false"
     inkscape:snap-bbox="true"
     inkscape:bbox-nodes="true"
     inkscape:zoom="5.368001304915683"
     inkscape:cx="-19.58870538001739"
     inkscape:cy="19.34046046190783"
     inkscape:window-x="0"
     inkscape:window-y="30"
     inkscape:window-maximized="1"
     inkscape:current-layer="svg2"
     inkscape:snap-page="true"
     fit-margin-top="0"
     fit-margin-left="0"
     fit-margin-right="0"
     fit-margin-bottom="0" />
  <path
     d="M 12,0 12,15.169921875 2.830078125,6 0,8.830078125 11.169921875,20 0,31.169921875 2.830078125,34 12,24.830078125 12,40 14,40 25.41015625,28.58984375 16.830078125,20 25.41015625,11.41015625 14,0 12,0 Z m 4,7.66015625 3.759765625,3.759765625 L 16,15.169921875 16,7.66015625 Z M 33,20 c -2.76000000000001,0 -5,2.24000000000001 -5,5 l 0,3 c -1.10000000000002,0 -2,0.90000000000002 -2,2 l 0,8 c 0,1.10000000000001 0.89999999999998,2 2,2 l 10,0 c 1.10000000000002,0 2,-0.89999999999998 2,-2 l 0,-8 c 0,-1.1 -0.89999999999998,-2 -2,-2 l 0,-3 c 0,-2.75999999999999 -2.24,-5 -5,-5 z m 0,2 c 1.65999999999999,0 3,1.34000000000002 3,3 l 0,3 -6,0 0,-3 c 0,-1.65999999999998 1.34000000000001,-3 3,-3 z M 16,24.8203125 19.759765625,28.58984375 16,32.33984375 16,24.8203125 Z"
     id="path4"
     inkscape:connector-curvature="0" />
</svg>

<svg xmlns="http://www.w3.org/2000/svg" viewBox="0 0 40 40" fill="#03A9F4"><path d="m12 0v15.17l-9.17-9.17-2.83 2.83 11.17 11.17-11.17 11.17 2.83 2.83 9.17-9.17v15.17h2l11.41-11.41-8.58-8.59 8.58-8.59-11.41-11.41h-2m4 7.66l3.76 3.76-3.76 3.75v-7.51m17 12.34c-2.76 0-5 2.24-5 5v3c-1.1 0-2 .9-2 2v8c0 1.1.9 2 2 2h10c1.1 0 2-.9 2-2v-8c0-1.1-.9-2-2-2v-3c0-2.76-2.24-5-5-5zm0 2c1.66 0 3 1.34 3 3v3h-6v-3c0-1.66 1.34-3 3-3m-17 2.82l3.76 3.77-3.76 3.75v-7.52"/></svg>
